X:1
T:O Domine Jesu Christe
T:O Domine Jesu Christe
T:Giovanni Pierluigi da Palestrina (1525-1594)
C:Giovanni Pierluigi da Palestrina (1525-1594)
%%score [ ( 1 2 ) ( 3 4 ) ]
L:1/8
M:4/4
K:F
V:1 treble 
V:2 treble 
V:3 bass transpose=-24 
V:4 bass transpose=-24 
V:1
 G8 | ^F6 G2 | A4 (B4 | B4) A4 | G8 | !fermata!^F8 | z4 ^F4 | G6 G2 | A4 A2 (B2 | B2) A2 G2 G2 | %10
w: O|Do- mi-|ne Je-|* su|Chri-|ste|Ad-|o- ro|te, in cru-|* ce vul- ne-|
 ^F4 !fermata!G4 | z4 (B4 | B4) A4 | z2 B4 A2 | G4 G2 G2 | G6 !fermata!^F2 | B4 c2 c2 | d4 z2 d2 | %18
w: ra- tum.|fel|* le|et a-|ce- to po-|ta- tum|||
 c3 B A2 A2 | G4 (B4 | B2) B2 c2 c2 | A6"^a-" A2 |"^ni-" B2"^mae-" (A3 G)"^me-" (G2 | G2) ^FE F4 | %24
w: ||||||
"^ae" G4 G4 | G2 G2 (G4 | G8) | G8 |] %28
w: ||||
V:2
 D8 | D6 E2 | F4 (F4 | F4) F4 | _E2 D3 C/B,/ C2 | !fermata!D8 | z4 D4 | D6 E2 | F4 F2 (F2 | %9
w: |||||||||
w: de-|pre- cor|te, ut|tu- a|vul- ne- ra sint *|re-|me-|di- um|a- * ni-|
 F2) F2 D2 C2 | D4 !fermata!D4 | z4 (G4 | G4) ^F4 | z2 G4 C2 | _E4 E2 E2 | B,2 C2 D4 | G4 G2 A2 | %17
w: ||||||||
w: mae * * *||||||||
 B4 z2 B2 | A3 G G2 ^F2 | G4 (G4 | G2) G2 G2 G2 | ^F6 F2 | G2 C2 _E4 | D8 | =B,6 D2 | _E2 D2 (E4 | %26
w: |||||||||
w: |||||||||
 E4) D3 C | D8 |] %28
w: ||
w: ||
V:3
 b8 | a6 b2 | c'4 (d'4 | d'4) c'4 | b3 a g4 | !fermata!a8 | z4 a4 | b6 b2 | c'4 c'2 (d'2 | %9
w: de-|pre- cor|te, ut|tu- a|vul- ne- ra|sint||re- me-|di- um a-|
 d'2) c'2 b2 g2 | a4 !fermata!g4 | z4 (d'4 | d'4) d'4 | z2 d'4 a2 | b4 c'2 c'2 | g3 a b2 a2 | %16
w: * ni- mae *|||||||
 g4 _e'2 e'2 | d'4 z2 b2 | f3 g d'2 d'2 | g4 z2 (_e'2 | _e'2) e'2 e'2 e'2 | d'6 (d'2 | %22
w: ||||||
 d'2) a2 b2 c'2 | a8 | g4 z2 =b2 | c'2 d'2 (c'4 | c'4) =b3 a | =b8 |] %28
w: |me-|ae, a-|ni- mae me-||ae.|
V:4
 g8 | d6 g2 | f4 (B4 | B4) f4 | g3 f _e4 | !fermata!d8 | z4 d4 | g6 g2 | f4 f2 (b2 | %9
 b2) f2 g2 _e2 | d4 !fermata!G4 | z4 (g4 | d4) d4 | z2 g4 f2 | _e4 c2 c2 | _e4 !fermata!d4 | %16
 _e4 c2 c2 | B4 z4 | x8 | z4 (_e4 | _e2) e2 c2 c2 | d6 d2 | g2 f2 _e2 c2 | d8 | G4 G4 | c2 =B2 c4 | %26
 G8 | G8 |] %28

